!!!OTL: Das arme Maegdlein.
!!!SCT: A0212A
!!!TXL: @@GMH
!!!YEM: Copyright 1995, estate of Helmut Schaffrath.
**kern	**text
*M4/2	*
*met(c|)	*
*clefC4	*
*k[b-]	*
*g:dor	*
=1	=1
!LO:TX:a:t=dor. tr.	!
1ryy	.
2ryy	.
{2G	Jch
=2	=2
2G	ar-
2G	-mes
2G	meydlein
2D	.
=3	=3
2.G	klag
4A/	.
2B-	.
2.c	.
=4	=4
.	.
4B-	.
4A	.
4G	.
2A	.
2A	mich
=5	=5
1G	ſehr,
2r}	.
{2G	wie
=6	=6
2A	ſol
2A	mir
2d	leid
2A	ge-
=7	=7
1B-	-ſche-
4A/	.
4G/	.
2c	.
=8	=8
1A	-hen?
2r}	.
{2G	Daß
=9	=9
2G	ich
2G	den
2G	al-
2D	-ler-
=10	=10
2.G	-lieb-
4A/	.
2B-	.
2.c	.
=11	=11
.	.
4B-	.
4A	.
4G	.
2A	.
2A	-ſten
=12	=12
1G	mein
2r}	.
{2G	ſo
=13	=13
2A	lang
2A	nit
2d	hab
2A	ge-
=14	=14
1B-	-ſe-
4A/	.
4G/	.
2c	.
=15	=15
1A	hen.
2r}	.
{2A	Der
=16	=16
2B-	mir
2A	mein
2.d	ʒeit
4c	und
=17	=17
2B-	weil
2A/	ver-
2G}	-treibt,
{2A/	ſonſt
=18	=18
2F	keinr
2G	auf
2.A/	die-
4G	-ſer
=19	=19
2F	er-
4E	.
4D	.
1E	.
=20	=20
1D	-den;
2r}	.
{2D	wann
=21	=21
2G	ich
2F#i	ge-
1G	-denck
=22	=22
2r	.
2A	wie
2B-	es
2A	jm
=23	=23
1G	get,
2r}	.
{2d	mein
=24	=24
2d	hertʒ
2d	in
2A	gro-
2d	-ßen
=25	=25
*lig	*
2c	ſor-
2B-	.
2c	.
*Xlig	*
2A	-gen
=26	=26
1G	ſtet,
2r}	.
{2d	wie
=27	=27
2B-	kan
2A	ich
2G	frö-
2D	-lich
=28	=28
2.G	wer
4A/	.
2B-	.
2.c	.
=29	=29
.	.
4B-	.
4A	.
4G	.
1A	.
=30	=30
0G/ll}	den?
==	==
!!!GTL: Liebeslieder
!!!AGN: Romanze, Ballade, Lied
!! Forster III 1549 No. 31.
!!!ONB: ESAC (Essen Associative Code) Database: ALTDEU
!!!AMT: simple quadruple
!!!AIN: vox
!!!EED: Helmut Schaffrath
!!!EEV: 1.0
!!!RDF**kern: i = editorial accidental
!!!RDF**kern: l = terminal long
!!!AMD: Dorian
!!!URL-scan: https://rosdok.uni-rostock.de/mcrviewer/recordIdentifier/rosdok_ppn738218359/iview2/phys_0369.iview2?x=-1816.6124862433817&y=55.069109150907025&scale=0.262872707487861&rotation=0&layout=singlePageLayout
!!!ENC: Anna Maria Matuszewska
!!!EEV: 2024/08/03
*-	*-
